svg/counter/HappyPeople.svg

<svg width="167" height="177" viewBox="0 0 167 177" fill="none" xmlns="http://www.w3.org/2000/svg">
<path d="M135.462 64.131C135.932 64.363 136.444 64.4789 136.958 64.4789C137.495 64.4789 138.033 64.3517 138.521 64.0976C141.261 62.6694 150.208 57.4513 150.311 50.2716C150.457 45.9684 146.552 41.5421 141.71 41.6212C140.011 41.6212 138.374 42.108 136.974 43.0136C135.585 42.1073 133.968 41.6212 132.289 41.6212C127.816 41.5737 123.728 45.5015 123.627 50.1822C123.476 57.6331 132.648 62.7426 135.462 64.131ZM132.264 46.7784H132.288C133.166 46.7784 134.006 47.115 134.657 47.7281C134.657 47.7284 134.657 47.7288 134.658 47.7291C135.948 48.9438 137.978 48.9445 139.278 47.7312C139.938 47.1168 140.801 46.7784 141.709 46.7784C143.09 46.8015 145.064 47.9014 145.154 50.1974C145.105 53.5957 140.29 57.1948 136.937 59.0896C133.547 57.2652 128.713 53.7511 128.782 50.2864C128.82 48.4305 130.447 46.7912 132.264 46.7784Z" fill="#332E2E"/>
<path d="M28.144 64.1313C28.614 64.363 29.1263 64.4789 29.6393 64.4789C30.177 64.4789 30.7148 64.3517 31.2026 64.0976C33.9422 62.6694 42.889 57.4513 42.9922 50.2713C43.1383 45.9687 39.2332 41.5421 34.3912 41.6212C32.6921 41.6212 31.0555 42.108 29.6555 43.0136C28.2499 42.0963 26.6051 41.6084 24.909 41.6212C20.261 41.6542 16.4023 45.495 16.3077 50.1822C16.1578 57.6331 25.3288 62.7426 28.144 64.1313ZM24.9458 46.7784H24.9699C25.848 46.7784 26.6883 47.115 27.3381 47.7281C27.3385 47.7284 27.3388 47.7288 27.3391 47.7291C28.6288 48.9435 30.6587 48.9448 31.9601 47.7312C32.6192 47.1168 33.4825 46.7784 34.3909 46.7784C35.772 46.8015 37.7455 47.9014 37.8352 50.1974C37.7864 53.5957 32.9716 57.1948 29.618 59.0896C26.229 57.2652 21.3942 53.7511 21.4643 50.2864C21.5018 48.4301 23.1287 46.7912 24.9458 46.7784Z" fill="#332E2E"/>
<path d="M11.8392 72.0881H20.1355C20.4312 72.0881 20.7097 72.2033 20.9191 72.412L26.535 78.0169C27.3942 78.874 28.5264 79.3031 29.6589 79.3031C30.7812 79.3031 31.9034 78.882 32.7602 78.0386L38.4848 72.4065C38.6935 72.2009 38.9699 72.0878 39.2628 72.0878H47.4598C52.5421 72.0878 56.6769 67.9533 56.6769 62.8707V53.2025C57.9277 53.655 59.2755 53.9028 60.6803 53.9028H71.798C72.6462 53.9028 73.4542 54.2683 74.0146 54.9044L79.6357 61.2901C80.6098 62.3969 82.0143 63.0347 83.4885 63.0405H83.5092C84.9759 63.0405 86.3766 62.4148 87.3551 61.3211L93.1117 54.8869C93.6711 54.2615 94.4732 53.9028 95.3125 53.9028H106.307C107.575 53.9028 108.795 53.6993 109.941 53.3276V62.871C109.941 67.9533 114.075 72.0881 119.158 72.0881H127.454C127.75 72.0881 128.029 72.2033 128.238 72.412L133.854 78.0169C134.713 78.874 135.846 79.3031 136.978 79.3031C138.1 79.3031 139.222 78.882 140.079 78.0386L145.804 72.4061C146.013 72.2009 146.289 72.0878 146.582 72.0878H154.779C159.861 72.0878 163.996 67.9533 163.996 62.8707V38.9426C163.996 33.8603 159.862 29.7255 154.779 29.7255H118.105V11.7981C118.105 5.29274 112.812 0 106.306 0H85.2991C83.8747 0 82.7205 1.1542 82.7205 2.57864C82.7205 4.00308 83.8747 5.15728 85.2991 5.15728H106.306C109.968 5.15728 112.947 8.13647 112.947 11.7981V42.1044C112.947 45.7664 109.968 48.7456 106.306 48.7456H95.3121C93.0075 48.7456 90.8043 49.7306 89.2675 51.448L83.5068 57.8826L77.886 51.4968C76.3467 49.7485 74.1277 48.7456 71.798 48.7456H60.6803C57.0183 48.7456 54.0391 45.7664 54.0391 42.1044V11.7981C54.0391 8.13647 57.0183 5.15728 60.6803 5.15728H73.2654C74.6895 5.15728 75.8441 4.00308 75.8441 2.57864C75.8441 1.1542 74.6895 0 73.2654 0H60.6803C54.1746 0 48.8818 5.29274 48.8818 11.7981V29.7262H11.8392C6.75683 29.7262 2.62207 33.8606 2.62207 38.9433V62.8714C2.62207 67.9537 6.75683 72.0881 11.8392 72.0881ZM154.779 34.8835C157.017 34.8835 158.838 36.7047 158.838 38.9433V62.8714C158.838 65.11 157.017 66.9312 154.779 66.9312H146.582C144.927 66.9312 143.366 67.57 142.187 68.7304L136.981 73.8519L131.881 68.7617C130.698 67.581 129.126 66.9308 127.454 66.9308H119.158C116.919 66.9308 115.098 65.1096 115.098 62.871V49.9617C116.966 47.8736 118.105 45.1197 118.105 42.104V34.8831H154.779V34.8835ZM7.77935 38.9433C7.77935 36.7047 9.60056 34.8835 11.8392 34.8835H48.8818V42.1044C48.8818 44.9161 49.872 47.4999 51.5196 49.5291V62.871C51.5196 65.1096 49.6984 66.9308 47.4598 66.9308H39.2628C37.6084 66.9308 36.0478 67.5696 34.8681 68.73L29.662 73.8515L24.5618 68.7613C23.3787 67.5806 21.8068 66.9305 20.1352 66.9305H11.8388C9.60021 66.9305 7.77901 65.1093 7.77901 62.8707V38.9433H7.77935Z" fill="#332E2E"/>
<path d="M64.4017 24.3191C64.1875 34.9382 77.658 42.417 81.7903 44.4555C82.3202 44.7171 82.8984 44.8478 83.4768 44.8478C84.0829 44.8478 84.6884 44.7044 85.2385 44.418C89.2708 42.3166 102.438 34.6618 102.586 24.4081C102.804 18.3827 97.3075 12.4033 90.7671 12.5343C88.1166 12.5343 85.5775 13.3942 83.4984 14.9775C81.4125 13.3757 78.8768 12.5244 76.2301 12.5343C69.8382 12.5794 64.532 17.8659 64.4017 24.3191ZM76.2672 17.6916C76.283 17.6913 76.2989 17.6913 76.3147 17.6913C78.0142 17.6913 79.6384 18.3411 80.8923 19.5231V19.5235C82.3439 20.8915 84.631 20.8912 86.0991 19.5228C87.3664 18.3411 89.0232 17.6916 90.7671 17.6916C93.9333 17.6366 97.5162 20.503 97.4289 24.3342C97.3467 30.0426 89.9887 35.9979 83.4609 39.5231C76.8366 36.1279 69.44 30.2695 69.5576 24.4232C69.6312 20.7994 72.7032 17.7167 76.2672 17.6916Z" fill="#332E2E"/>
<path d="M165.134 156.193V118.633C165.134 103.174 152.557 90.5967 137.098 90.5967C132.654 90.5967 128.23 91.6632 124.303 93.6808C123.036 94.3316 122.537 95.886 123.188 97.1526C123.839 98.4196 125.393 98.9188 126.66 98.268C129.907 96.5998 133.418 95.754 137.098 95.754C149.713 95.754 159.976 106.017 159.976 118.633V151.644C159.906 151.614 159.839 151.578 159.768 151.549H159.768L146.781 146.198V141.157C151.744 136.201 155.56 128.255 155.56 120.945C155.56 111.531 151.369 104.134 144.348 101.157C143.71 100.887 142.99 100.885 142.349 101.151C141.905 101.363 141.093 101.852 140.822 102.98C139.267 110.075 133.674 115.64 126.573 117.16L120.671 118.423C119.679 118.615 118.644 119.804 118.638 121.461C118.816 128.7 122.569 136.373 127.415 141.189V146.198L117.156 150.425C116.329 149.404 115.341 148.509 114.22 147.773V118.632C114.22 113.906 115.648 109.37 118.351 105.515C119.169 104.348 118.886 102.741 117.72 101.923C116.553 101.106 114.946 101.388 114.129 102.554C110.814 107.281 109.063 112.841 109.063 118.633V145.386L94.951 139.572V129.776C101.411 124.543 105.239 115.129 105.951 105.867C109.332 103.441 111.306 98.5341 112.397 94.6063C113.145 91.917 112.687 89.0461 111.142 86.7298C110.166 85.2655 108.817 84.1212 107.258 83.3975C107.413 82.5379 107.453 81.6554 107.374 80.7686C106.952 76.0405 103.215 72.3093 98.4862 71.8967C96.7193 71.7431 94.9709 72.07 93.4148 72.8075C91.5135 69.151 87.6933 66.7013 83.3454 66.7013C81.4204 66.7013 79.5417 67.1909 77.8783 68.1065C76.1734 66.7574 74.0633 66.0137 71.8275 66.0137C67.4778 66.0137 63.7818 68.8044 62.5059 72.7776C56.5059 73.9112 52.0579 79.1259 52.0579 85.4394C52.0579 88.3162 53.0093 91.0787 54.7572 93.3321C54.7112 94.7799 54.716 97.4497 55.1963 100.011C56.0992 104.826 59.2939 107.349 61.2169 108.462C61.4466 110.145 61.7725 111.82 62.2016 113.456C62.5038 114.428 63.7594 115.728 65.3496 115.297C66.7273 114.936 67.5514 113.527 67.1904 112.149C66.7318 110.398 66.3989 108.596 66.2019 106.792C66.0881 105.795 66.4605 105.357 68.7214 104.254C70.2511 103.522 72.204 102.587 73.4183 100.665C78.556 101.238 84.2961 98.3777 87.0858 93.9926C88.8438 95.1368 91.5032 96.1628 94.261 95.886C95.5764 98.6964 97.4327 99.9761 98.8613 100.961C100.397 102.019 100.871 102.349 100.879 104.295C100.346 116.346 93.6782 128.79 83.42 128.79C77.7511 128.79 73.9451 125.188 71.7505 122.167C70.9133 121.014 69.3008 120.758 68.1486 121.596C66.9965 122.433 66.7407 124.045 67.5775 125.198C68.8913 127.006 70.3374 128.544 71.8959 129.803V139.572C67.648 141.322 58.9766 144.895 54.8074 146.613C52.7383 147.465 50.9855 148.809 49.6508 150.473L39.2765 146.198V138.269C42.9106 135.044 46.0119 130.326 47.6478 125.154C48.3856 125.048 49.0471 124.63 49.4531 123.995C52.1339 119.807 57.2833 107.108 49.0278 98.7486C45.7832 95.4635 41.2187 94.7727 37.4525 95.4934C37.2943 95.1489 37.1149 94.8171 36.9124 94.5004C33.4298 89.0595 24.429 88.2966 16.4208 92.7641C15.1772 93.458 14.7313 95.0285 15.4251 96.2721C16.1189 97.516 17.6895 97.9623 18.9334 97.2678C24.9399 93.918 30.8333 94.5692 32.5689 97.2805C33.2875 98.4031 33.3336 100.128 32.6954 102.015C31.7479 104.817 29.0324 108.43 24.2526 110.17C18.7443 112.175 14.9369 115.323 12.5985 117.798C11.6286 114.398 11.0703 109.538 12.4019 105.122C12.8131 103.758 12.0409 102.32 10.6773 101.909C9.31301 101.498 7.87516 102.269 7.46396 103.633C5.08473 111.525 7.41582 120.575 9.74107 124.207C10.1602 124.862 10.8482 125.286 11.608 125.376C13.2631 130.444 16.3317 135.067 19.9095 138.248V146.198C19.6733 146.302 7.02868 151.493 6.77804 151.615C2.65669 153.381 0 157.394 0 161.889V170.015C0 173.335 2.7007 176.036 6.02026 176.036H160.67C163.989 176.036 166.69 173.335 166.69 170.015V161.889C166.69 159.832 166.131 157.879 165.134 156.193ZM98.4009 92.2408C98.2114 91.5646 97.7545 90.9948 97.1356 90.6631C96.5168 90.3313 95.7896 90.2666 95.1219 90.4832C94.5381 90.6727 93.9306 90.7686 93.3162 90.7686C91.375 90.7686 89.5644 89.8073 88.4728 88.1968C87.9213 87.3834 86.9562 86.9539 85.9804 87.0898C85.0064 87.2262 84.195 87.905 83.8883 88.8398C82.5649 92.8724 78.8235 95.5821 74.578 95.5821C74.0998 95.5821 72.9421 95.404 72.3112 95.284C70.9397 95.0227 69.6102 95.8991 69.3094 97.262C69.0869 98.2714 68.3212 98.7277 66.4956 99.601C65.1337 100.253 63.3386 101.111 62.1762 102.756C61.3661 101.93 60.5788 100.733 60.2652 99.0612C59.702 96.0579 59.9506 92.6772 59.953 92.6455C60.0091 91.9283 59.7629 91.2204 59.2743 90.6926C57.9465 89.2586 57.2149 87.3927 57.2149 85.4398C57.2149 81.2301 60.5104 77.8348 64.7173 77.7107C66.0187 77.6722 67.0873 76.6696 67.2086 75.3731C67.4328 72.9774 69.4184 71.171 71.8275 71.171C73.2842 71.171 74.63 71.8421 75.5198 73.0121C75.9523 73.5811 76.6018 73.9452 77.3131 74.0171C78.0241 74.0889 78.7334 73.8624 79.2715 73.3913C80.3999 72.4029 81.8467 71.8586 83.3454 71.8586C86.4962 71.8586 89.1391 74.2155 89.4925 77.3408C89.6088 78.3678 90.327 79.2263 91.3175 79.522C92.3101 79.819 93.3798 79.4927 94.0396 78.6975C95.0284 77.5051 96.4834 76.8983 98.0378 77.0344C100.236 77.2263 102.041 79.0282 102.236 81.2266C102.319 82.159 102.129 83.0788 101.685 83.8867C101.269 84.6435 101.259 85.5584 101.659 86.3237C102.059 87.0891 102.816 87.6034 103.675 87.6932C104.809 87.7894 105.951 88.3526 106.851 89.591C107.563 90.6583 107.773 91.983 107.428 93.2255C106.704 95.8317 105.796 98.0067 104.811 99.5638C103.944 98.1999 102.767 97.3888 101.788 96.7139C100.31 95.6952 99.1425 94.8903 98.4009 92.2408ZM127.651 122.204C135.587 120.506 142.048 114.855 144.873 107.401C148.38 110.138 150.402 114.987 150.402 120.946C150.402 130.199 142.349 140.905 137.095 140.905C132.226 140.905 124.955 131.791 123.914 123.004L127.651 122.204ZM78.8431 170.878C77.8966 161.998 74.5488 153.421 69.2427 146.243L73.8674 144.338C76.4869 146.659 79.8756 147.966 83.4204 147.966H83.4228C86.9751 147.966 90.3717 146.654 92.9809 144.338L97.5324 146.214C92.1953 153.39 88.8163 161.984 87.8518 170.878H78.8431ZM102.473 148.25L110.074 151.381C112.987 152.582 114.869 155.393 114.869 158.544V170.878H93.0504C94.0464 162.657 97.3337 154.747 102.473 148.25ZM83.42 133.947C85.7026 133.947 87.8291 133.533 89.793 132.782V140.269C88.0812 141.892 85.8058 142.808 83.4231 142.808C83.4228 142.808 83.4221 142.808 83.4217 142.808C81.0353 142.808 78.7565 141.889 77.0535 140.271V132.788C79.0642 133.552 81.1941 133.947 83.42 133.947ZM46.8195 170.878H42.3224L46.8195 165.657V170.878ZM46.8501 157.72L35.5154 170.878H23.7809L11.9594 155.052L21.9009 150.956C24.0408 152.75 26.757 153.753 29.5911 153.753H29.5932C32.4266 153.753 35.142 152.752 37.2847 150.955L47.2964 155.081C47.0602 155.933 46.9072 156.815 46.8501 157.72ZM45.3586 102.373C49.8472 106.918 48.4337 113.812 46.6637 118.131C44.9722 116.454 42.5431 114.303 39.6014 112.421C37.7537 111.238 36.2584 109.668 35.3562 107.993C36.3055 106.653 37.0626 105.2 37.5807 103.668C37.9294 102.637 38.1474 101.61 38.2395 100.61C40.3842 100.171 43.3545 100.344 45.3586 102.373ZM15.9497 121.762C17.7795 119.723 21.0524 116.824 26.0164 115.017C28.101 114.258 30.0143 113.18 31.6822 111.857C32.9736 113.738 34.725 115.422 36.8209 116.764C39.4828 118.468 41.6942 120.457 43.1857 121.952C41.1967 130.418 34.2632 137.466 29.5904 137.466C24.9152 137.466 17.882 130.298 15.9497 121.762ZM29.5907 142.623C31.0798 142.623 32.6074 142.272 34.1192 141.629V146.877C32.8794 147.978 31.2724 148.596 29.5932 148.596C29.5928 148.596 29.5925 148.596 29.5918 148.596C27.916 148.595 26.3121 147.98 25.0671 146.876V141.621C26.5796 142.268 28.1061 142.623 29.5907 142.623ZM5.15762 170.015V161.889C5.15762 160.105 5.93603 158.463 7.23188 157.341L17.3436 170.878H6.02061C5.54476 170.878 5.15762 170.491 5.15762 170.015ZM51.9768 158.544C51.9768 155.393 53.8592 152.581 56.7724 151.381L64.3089 148.276C69.4163 154.778 72.6695 162.672 73.6463 170.878H51.9771V158.544H51.9768ZM120.027 170.878V158.544C120.027 157.331 119.852 156.15 119.534 155.023L127.435 151.768C127.535 158.264 128.136 165.092 131.751 170.878H120.027ZM132.572 147.919V144.943C134.077 145.659 135.604 146.062 137.095 146.062C138.588 146.062 140.116 145.661 141.624 144.938C141.624 144.945 141.623 147.663 141.624 147.931C141.624 155.67 141.622 163.655 137.098 169.54C132.574 163.665 132.572 155.671 132.572 147.925C132.572 147.923 132.572 147.921 132.572 147.919ZM161.533 170.015C161.533 170.491 161.146 170.878 160.67 170.878H142.443C146.059 165.086 146.661 158.262 146.761 151.768L157.803 156.318H157.803C160.069 157.251 161.533 159.438 161.533 161.889V170.015Z" fill="#332E2E"/>
</svg>

<svg id="Layer_1" data-name="Layer 1" xmlns="http://www.w3.org/2000/svg" viewBox="0 0 198.04 140.93"><defs><style>.cls-1{fill:none;stroke:#332e2e;stroke-miterlimit:10;stroke-width:5px}.cls-2{fill:#332e2e}</style></defs><path class="cls-1" d="M-15.68 58.05a4.07 4.07 0 012.24-5.29C5.26 44.85 19 39.41 20.94 39.26a3.93 3.93 0 012 .31 4.35 4.35 0 012 2.06l3.88 9.85 5 12.37a4.06 4.06 0 01-2.25 5.28L24 72.2a6.25 6.25 0 00-3.4 3.32l-2.9 6.7-6.64-2.81a6.22 6.22 0 00-4.79 0l-7.69 3.11a4.08 4.08 0 01-5.29-2.25z" transform="translate(18.48 -35.11)"/><path class="cls-2" d="M12.87 72.92a3.5 3.5 0 001.51-.24 3.38 3.38 0 001.31-.94c2-2.35 8.35-10.54 5.75-17.24a8.63 8.63 0 00-15.08-1.73 8.55 8.55 0 00-4.92.49 8.75 8.75 0 00-4.77 11.16c2.65 6.96 13.07 8.26 16.2 8.5zM3.39 58.05A3.46 3.46 0 016 58a3.38 3.38 0 004.28-1.73 3.48 3.48 0 016.37.09c1.23 3.17-1.89 8.31-4.29 11.32-3.82-.42-9.62-1.87-10.85-5.11a3.65 3.65 0 011.88-4.52zM71.36 45.47c-.13 6.14 7.64 10.47 10.06 11.64a2.07 2.07 0 001 .23 2.17 2.17 0 001-.25c2.33-1.21 10-5.64 10-11.57a6.91 6.91 0 00-6.83-6.87 7 7 0 00-4.21 1.41 6.88 6.88 0 00-4.2-1.41 7 7 0 00-6.82 6.82zm6.86-3.84a3.89 3.89 0 012.65 1.06 2.19 2.19 0 003 0 3.88 3.88 0 016.55 2.79c0 3.3-4.3 6.74-8.08 8.78-3.83-2-8.11-5.35-8-8.73a4 4 0 013.88-3.9zM165.13 156.19v-37.56a28.05 28.05 0 00-40.83-24.95 2.58 2.58 0 002.36 4.59 22.62 22.62 0 0110.44-2.52 22.91 22.91 0 0122.9 22.88v33l-.21-.09-13-5.35v-5c5-5 8.78-12.9 8.78-20.22 0-9.41-4.19-16.81-11.21-19.78a2.62 2.62 0 00-2 0 2.66 2.66 0 00-1.53 1.83 18.61 18.61 0 01-14.25 14.18l-5.9 1.26a3 3 0 00-2 3c.18 7.24 3.93 14.91 8.78 19.73v5l-10.26 4.23a12.87 12.87 0 00-2.94-2.66v-29.13a22.79 22.79 0 014.13-13.12 2.58 2.58 0 10-4.22-3 27.84 27.84 0 00-5.07 16.08v26.76L95 139.57v-9.79c6.46-5.24 10.29-14.65 11-23.91 3.38-2.43 5.36-7.34 6.45-11.26a9.59 9.59 0 00-1.26-7.88 9.39 9.39 0 00-3.88-3.33 10 10 0 00.11-2.63 9.79 9.79 0 00-14-8 11.33 11.33 0 00-15.53-4.7 9.79 9.79 0 00-15.37 4.67 12.89 12.89 0 00-7.75 20.55 32.32 32.32 0 00.43 6.71 12.22 12.22 0 006 8.45 42.47 42.47 0 001 5 2.72 2.72 0 003.15 1.84 2.58 2.58 0 001.84-3.15 37.2 37.2 0 01-1-5.36c-.11-1 .26-1.43 2.52-2.54a10.43 10.43 0 004.7-3.58A15.09 15.09 0 0087.09 94a11.51 11.51 0 007.17 1.9 11.94 11.94 0 004.6 5.07c1.54 1.06 2 1.39 2 3.33-.53 12.06-7.2 24.5-17.46 24.5-5.67 0-9.47-3.6-11.67-6.62a2.58 2.58 0 10-4.17 3 23.84 23.84 0 004.32 4.6v9.77l-17.09 7a13 13 0 00-5.16 3.86l-10.35-4.21v-7.93a30.1 30.1 0 008.37-13.12 2.53 2.53 0 001.8-1.15c2.68-4.19 7.83-16.89-.42-25.25a12.79 12.79 0 00-11.58-3.26 9.49 9.49 0 00-.54-1c-3.48-5.44-12.48-6.2-20.49-1.74a2.58 2.58 0 002.51 4.51c6-3.35 11.9-2.7 13.64 0a5.64 5.64 0 01.13 4.74 13.85 13.85 0 01-8.45 8.16 30.26 30.26 0 00-11.65 7.64 23.51 23.51 0 01-.2-12.68 2.58 2.58 0 00-4.94-1.49c-2.38 7.9 0 16.94 2.28 20.58a2.6 2.6 0 001.87 1.17 30.08 30.08 0 008.3 12.87v7.95c-.24.1-12.88 5.29-13.13 5.42A11.13 11.13 0 000 161.89V170a6 6 0 006 6h154.67a6 6 0 006-6v-8.12a11.16 11.16 0 00-1.54-5.69zM98.4 92.24a2.59 2.59 0 00-1.26-1.58 2.63 2.63 0 00-2-.18 5.8 5.8 0 01-1.8.29 5.86 5.86 0 01-4.85-2.57 2.57 2.57 0 00-4.58.64 9.79 9.79 0 01-9.31 6.74 17.56 17.56 0 01-2.27-.3 2.58 2.58 0 00-3 2c-.22 1-1 1.47-2.81 2.34a10.4 10.4 0 00-4.32 3.16 7.06 7.06 0 01-1.91-3.7 28.71 28.71 0 01-.29-6.43 2.57 2.57 0 00-.68-2 7.73 7.73 0 015.45-13 2.58 2.58 0 002.49-2.34A4.63 4.63 0 0175.52 73a2.56 2.56 0 001.79 1 2.6 2.6 0 002-.63 6.19 6.19 0 0110.22 4A2.58 2.58 0 0094 78.7a4.63 4.63 0 014-1.7 4.69 4.69 0 014.2 4.2 4.63 4.63 0 01-.56 2.66 2.58 2.58 0 002 3.8 4.34 4.34 0 013.17 1.9 4.45 4.45 0 01.58 3.64 24.28 24.28 0 01-2.62 6.33 10.14 10.14 0 00-3-2.85 6.85 6.85 0 01-3.37-4.44zm29.25 30a23.73 23.73 0 0017.22-14.8c3.51 2.74 5.53 7.59 5.53 13.55 0 9.25-8.05 20-13.3 20-4.87 0-12.14-9.11-13.19-17.9zm-48.81 48.64a50.59 50.59 0 00-9.6-24.64l4.63-1.9a14.41 14.41 0 009.55 3.66 14.43 14.43 0 009.58-3.66l4.55 1.87a50.83 50.83 0 00-9.68 24.67zm23.63-22.63l7.6 3.13a7.71 7.71 0 014.8 7.16v12.34H93.05a45.52 45.52 0 019.42-22.63zm-19-14.3a17.72 17.72 0 006.37-1.17v7.49a9.25 9.25 0 01-6.37 2.54 9.27 9.27 0 01-6.37-2.54v-7.48a17.9 17.9 0 006.32 1.21zm-36.6 36.93h-4.5l4.5-5.22zm0-13.16l-11.35 13.16H23.78L12 155.05l9.9-4.05a12 12 0 007.69 2.79 12 12 0 007.69-2.79l10 4.12a12.9 12.9 0 00-.43 2.6zm-1.49-55.35c4.49 4.55 3.07 11.44 1.3 15.76a43.35 43.35 0 00-7.06-5.71 12.32 12.32 0 01-4.26-4.42 16.84 16.84 0 002.22-4.32 13.22 13.22 0 00.66-3.06c2.14-.45 5.11-.28 7.12 1.75zM16 121.76A24.94 24.94 0 0126 115a20.46 20.46 0 005.66-3.16 17.87 17.87 0 005.14 4.9 39.78 39.78 0 016.39 5.26c-2 8.47-8.93 15.52-13.6 15.52S17.88 130.3 16 121.76zm13.64 20.86a11.65 11.65 0 004.53-1v5.25a6.83 6.83 0 01-4.53 1.72 6.82 6.82 0 01-4.52-1.72v-5.26a11.48 11.48 0 004.47 1.01zM5.16 170v-8.12a6 6 0 012.07-4.55l10.11 13.54H6a.86.86 0 01-.84-.87zM52 158.54a7.72 7.72 0 014.79-7.16l7.54-3.1a45.43 45.43 0 019.34 22.6H52v-12.34zm68 12.34v-12.34a12.9 12.9 0 00-.5-3.52l7.9-3.25c.11 6.49.71 13.32 4.32 19.11zm12.54-23v-3a9.7 9.7 0 009.05 0v3c0 7.74 0 15.72-4.52 21.61-4.53-5.88-4.53-13.87-4.53-21.61zm29 22.09a.86.86 0 01-.86.87h-18.24c3.62-5.79 4.22-12.62 4.32-19.11l11 4.55a6 6 0 013.73 5.57z" transform="translate(18.48 -35.11)"/><path class="cls-1" d="M136.17 40.15a4.07 4.07 0 015.29-2.25c18.94 7.3 32.64 13 34.11 14.17a4 4 0 011.25 1.64 4.36 4.36 0 010 2.86l-4.05 9.78-5 12.37a4.07 4.07 0 01-5.29 2.28l-7.6-3.07a6.25 6.25 0 00-4.75 0l-6.74 2.8-2.83-6.63a6.21 6.21 0 00-3.41-3.36l-7.7-3.1a4.07 4.07 0 01-2.24-5.29z" transform="translate(18.48 -35.11)"/><path class="cls-2" d="M146.38 70.67a3.35 3.35 0 001.26.88 3.31 3.31 0 001.59.24c3.07-.3 13.32-1.79 16.11-8.41a8.63 8.63 0 00-9.65-11.72 8.5 8.5 0 00-3.88-3.07 8.76 8.76 0 00-11.18 4.71c-2.93 6.86 3.66 15.03 5.75 17.37zm3.51-17.28a3.43 3.43 0 011.84 1.77A3.38 3.38 0 00156 56.9a3.48 3.48 0 014.52 4.49c-1.32 3.13-7.13 4.67-10.95 5.17-2.46-3-5.62-8-4.26-11.22a3.65 3.65 0 014.58-1.95z" transform="translate(18.48 -35.11)"/></svg>
